build/images/team/border-for-brain-md.svg

<svg width="708" height="320" viewBox="0 0 708 320" fill="none" xmlns="http://www.w3.org/2000/svg">
<rect x="0.5" y="0.5" width="707" height="319" stroke="white"/>
<mask id="mask0_538_962" style="mask-type:alpha" maskUnits="userSpaceOnUse" x="1" y="197" width="707" height="123">
<rect x="1.5" y="197.5" width="706" height="122" fill="white" stroke="#3D3D4C"/>
</mask>
<g mask="url(#mask0_538_962)">
<rect x="215.01" y="274.5" width="492.49" height="45" stroke="white"/>
<path d="M0.75 290H708.001M708.001 305H0.75" stroke="white"/>
<path d="M67.2489 275H0.482422" stroke="white"/>
<path d="M51.7218 261H1" stroke="white"/>
<path d="M18.0801 319.5L43.9586 275H67.2492L41.3707 319.5" stroke="white"/>
<path d="M-11.4219 290L13.939 246H37.2297L11.8688 290" stroke="white"/>
<path d="M-0.0351562 311L28.4312 261H51.7218L26.3609 305" stroke="white"/>
<path d="M156.27 319.5L182.148 275L205.439 275L179.56 319.5" stroke="white"/>
<path d="M66.7305 319.5L92.6089 275L115.9 275L90.0211 319.5" stroke="white"/>
<path d="M610.309 320L636.494 274.5" stroke="white"/>
<path d="M657.277 319.5L683.156 274.5M706.446 274.5L680.568 319.5" stroke="white"/>
<path d="M634.48 319.5L667.629 261L690.92 261L665.041 305.5" stroke="white"/>
<path d="M682.904 274.5L708.783 230L732.073 230L706.195 274.5" stroke="white"/>
<path d="M682.121 261H708.517" stroke="white"/>
<path d="M112.795 319.5L138.673 275L161.964 275L136.086 319.5" stroke="white"/>
</g>
<path d="M690.272 24.3266C691.755 22.6353 693.136 20.854 694.407 18.9925C695.205 17.8311 695.909 16.6053 696.511 15.3274C697.003 14.2311 697.291 13.2864 697.295 12.4554C697.303 12.1827 697.267 11.9106 697.188 11.6496C697.105 11.3876 696.961 11.1496 696.769 10.9557C696.576 10.7617 696.341 10.6175 696.082 10.5351C695.825 10.4511 695.557 10.4098 695.288 10.413C694.469 10.413 693.537 10.7092 692.458 11.2089C690.055 12.3319 686.916 14.5624 683.585 17.5396C681.918 16.0354 680.162 14.6347 678.328 13.3453C677.184 12.5346 675.976 11.82 674.717 11.2089C673.638 10.7092 672.704 10.4186 671.886 10.413C671.617 10.4091 671.349 10.4503 671.094 10.5351C670.837 10.6188 670.603 10.7637 670.413 10.9576C670.222 11.1514 670.08 11.3887 669.998 11.6496C669.916 11.9099 669.876 12.182 669.879 12.4554C669.879 13.2864 670.171 14.2311 670.663 15.3274C671.77 17.7656 673.967 20.9493 676.901 24.3308C675.418 26.0225 674.038 27.8038 672.767 29.665C671.969 30.8266 671.265 32.0524 670.663 33.3301C670.171 34.4264 669.883 35.3711 669.879 36.2021C669.875 36.4754 669.916 36.7476 669.998 37.0078C670.081 37.2679 670.223 37.5044 670.414 37.6977C670.604 37.891 670.837 38.0356 671.094 38.1196C671.35 38.2032 671.617 38.2439 671.886 38.2403C672.705 38.2403 673.638 37.9441 674.717 37.4444C677.119 36.3214 680.258 34.0923 683.589 31.1136C685.255 32.6191 687.011 34.0198 688.846 35.3079C689.99 36.1193 691.199 36.8338 692.459 37.4444C693.538 37.9441 694.47 38.2361 695.289 38.2403C695.558 38.2439 695.826 38.2032 696.082 38.1196C696.338 38.0362 696.572 37.8918 696.762 37.6984C696.953 37.5051 697.095 37.2683 697.177 37.0078C697.26 36.7476 697.3 36.4754 697.296 36.2021C697.296 35.3711 697.004 34.4264 696.512 33.3301C695.41 30.8918 693.213 27.7082 690.272 24.3266ZM689.539 14.3799C690.629 13.6096 691.779 12.9312 692.978 12.3515C693.964 11.8869 694.783 11.6637 695.293 11.6693C695.428 11.6658 695.563 11.6848 695.692 11.7254C695.768 11.7479 695.837 11.7894 695.894 11.8462C695.949 11.9034 695.99 11.9738 696.013 12.0511C696.053 12.1819 696.072 12.3185 696.068 12.4554C696.068 12.9719 695.852 13.8044 695.396 14.8052C694.39 17.0371 692.283 20.1113 689.447 23.3932C688.685 22.5509 687.88 21.689 687.036 20.8328C686.193 19.9765 685.35 19.1553 684.515 18.3875C686.111 16.9507 687.79 15.6125 689.544 14.3799L689.539 14.3799ZM686.161 26.9417C685.298 27.8158 684.438 28.6468 683.584 29.4348C682.731 28.6487 681.868 27.8163 681.008 26.9417C680.147 26.0672 679.33 25.1913 678.555 24.3266C679.33 23.4619 680.152 22.586 681.013 21.7129C681.875 20.8398 682.738 20.0046 683.591 19.2185C684.443 20.0046 685.304 20.8384 686.166 21.7129C687.028 22.5874 687.848 23.4633 688.623 24.328C687.85 25.1927 687.028 26.0672 686.166 26.9417L686.161 26.9417ZM673.787 18.2836C673.027 17.1802 672.357 16.0154 671.784 14.801C671.327 13.8001 671.108 12.9677 671.112 12.4512C671.108 12.3143 671.127 12.1777 671.167 12.0469C671.189 11.9696 671.23 11.8992 671.286 11.842C671.343 11.7855 671.412 11.7436 671.488 11.7198C671.617 11.6804 671.752 11.662 671.886 11.6651C672.397 11.6651 673.216 11.8827 674.202 12.3473C676.401 13.3678 679.431 15.5057 682.665 18.3833C681.835 19.1553 680.986 19.9737 680.141 20.83C679.295 21.6862 678.493 22.5425 677.731 23.3903C676.317 21.7696 675 20.0643 673.787 18.2836ZM677.634 34.2748C676.546 35.0455 675.398 35.7252 674.202 36.3074C673.216 36.7706 672.404 36.9938 671.886 36.9896C671.751 36.9923 671.617 36.9734 671.488 36.9334C671.412 36.9103 671.343 36.8688 671.286 36.8127C671.231 36.7549 671.19 36.6846 671.167 36.6078C671.127 36.4765 671.108 36.3395 671.112 36.2021C671.112 35.6855 671.327 34.8545 671.784 33.8523C672.79 31.6217 674.896 28.5476 677.732 25.2657C678.493 26.1079 679.299 26.9698 680.142 27.8261C680.984 28.6824 681.834 29.4993 682.664 30.2728C681.067 31.7071 679.387 33.0434 677.634 34.2748ZM696.013 36.6078C695.989 36.6846 695.949 36.7549 695.894 36.8127C695.837 36.8688 695.768 36.9103 695.692 36.9334C695.563 36.9734 695.428 36.9923 695.293 36.9896C694.783 36.9896 693.964 36.7706 692.978 36.3074C690.778 35.2869 687.749 33.149 684.515 30.2714C685.345 29.4979 686.194 28.681 687.038 27.8247L686.602 27.3825L687.038 27.8247C687.882 26.9684 688.687 26.1122 689.449 25.2643C690.862 26.8844 692.179 28.5888 693.393 30.3682C694.151 31.4723 694.819 32.6376 695.39 33.8523C695.847 34.8545 696.067 35.6855 696.062 36.2021C696.068 36.3391 696.051 36.4762 696.013 36.6078Z" fill="white"/>
<path d="M689.546 20.8018C690.038 20.8032 690.52 20.6562 690.931 20.3794C691.341 20.1026 691.661 19.7085 691.851 19.2469C692.04 18.7853 692.091 18.2771 691.995 17.7865C691.9 17.2959 691.664 16.845 691.316 16.491C690.968 16.1369 690.524 15.8955 690.041 15.7975C689.558 15.6994 689.057 15.749 688.601 15.9401C688.146 16.1311 687.757 16.455 687.483 16.8706C687.209 17.2863 687.063 17.7751 687.062 18.2751C687.062 18.944 687.324 19.5856 687.789 20.0593C688.255 20.5329 688.886 20.7999 689.546 20.8018Z" fill="white"/>
<path d="M677.519 27.9666C677.028 27.9679 676.549 28.1169 676.141 28.3946C675.734 28.6723 675.417 29.0663 675.23 29.5268C675.043 29.9874 674.995 30.4938 675.092 30.9821C675.188 31.4704 675.425 31.9187 675.773 32.2704C676.12 32.622 676.563 32.8613 677.044 32.958C677.526 33.0546 678.025 33.0043 678.478 32.8134C678.931 32.6225 679.319 32.2996 679.591 31.8853C679.864 31.4711 680.009 30.9843 680.009 30.4862C680.007 29.8173 679.744 29.1764 679.277 28.7041C678.811 28.2318 678.178 27.9666 677.519 27.9666Z" fill="white"/>
<path d="M689.546 27.9666C689.056 27.9679 688.576 28.1169 688.169 28.3946C687.761 28.6723 687.444 29.0663 687.257 29.5268C687.07 29.9874 687.022 30.4938 687.119 30.9821C687.215 31.4704 687.452 31.9187 687.8 32.2704C688.148 32.622 688.59 32.8613 689.071 32.958C689.553 33.0546 690.052 33.0043 690.505 32.8134C690.958 32.6225 691.346 32.2996 691.618 31.8853C691.891 31.4711 692.036 30.9843 692.036 30.4862C692.035 29.8173 691.771 29.1764 691.305 28.7041C690.838 28.2318 690.206 27.9666 689.546 27.9666Z" fill="white"/>
<path d="M677.521 15.7626C677.029 15.7626 676.547 15.9108 676.138 16.1884C675.728 16.466 675.409 16.8606 675.221 17.3223C675.032 17.784 674.983 18.2921 675.079 18.7822C675.175 19.2723 675.412 19.7225 675.761 20.0759C676.109 20.4293 676.552 20.6699 677.035 20.7674C677.518 20.8649 678.019 20.8149 678.474 20.6236C678.929 20.4324 679.318 20.1085 679.592 19.693C679.865 19.2775 680.011 18.789 680.011 18.2893C680.011 17.6191 679.749 16.9765 679.282 16.5026C678.815 16.0288 678.182 15.7626 677.521 15.7626Z" fill="white"/>
<g clip-path="url(#clip0_538_962)">
<path d="M653.46 12.5394C650.924 10.0027 647.587 8.42382 644.017 8.07181C640.447 7.7198 636.866 8.61644 633.884 10.6089C630.901 12.6014 628.702 15.5665 627.66 18.9989C626.619 22.4313 626.8 26.1187 628.172 29.4326C629.545 32.7466 632.024 35.4821 635.187 37.173C638.35 38.8639 642.002 39.4056 645.52 38.7058C649.038 38.0061 652.205 36.1081 654.48 33.3353C656.756 30.5625 657.999 27.0864 657.999 23.4995C658.001 21.4637 657.602 19.4475 656.823 17.5666C656.044 15.6858 654.901 13.9773 653.46 12.5394ZM627.977 23.9852H631.462C631.503 26.4896 632.006 28.9649 632.946 31.2865H630.233C628.84 29.099 628.061 26.5772 627.977 23.9852ZM647.674 23.0152C647.661 20.5667 647.436 18.1239 647.004 15.7139H651.002C651.995 18.0221 652.527 20.5026 652.567 23.0152H647.674ZM638.294 23.0152C638.304 20.5661 638.531 18.1228 638.972 15.7139H646.015C646.457 18.1227 646.684 20.5661 646.693 23.0152H638.294ZM646.705 23.9852C646.696 26.4343 646.469 28.8777 646.027 31.2865H638.978C638.536 28.8776 638.309 26.4342 638.3 23.9852H646.705ZM646.806 14.7453C646.648 14.029 646.47 13.3575 646.278 12.7388C645.826 11.2927 645.271 10.1192 644.642 9.30253C646.534 9.89945 648.235 11.2642 649.569 13.1553C649.924 13.6622 650.246 14.1915 650.534 14.7398L646.806 14.7453ZM645.354 13.0264C645.521 13.5596 645.674 14.1348 645.814 14.7453H639.183C639.318 14.1348 639.476 13.5596 639.643 13.0264C640.429 10.5194 641.44 8.96881 642.5 8.96881C643.559 8.96881 644.573 10.5194 645.355 13.0264H645.354ZM638.719 12.7388C638.53 13.3575 638.35 14.029 638.191 14.7453H634.46C634.749 14.1949 635.072 13.6638 635.429 13.1553C636.767 11.2642 638.461 9.89945 640.355 9.30253C639.725 10.1192 639.172 11.2927 638.719 12.7388ZM637.994 15.7139C637.561 18.1238 637.338 20.5667 637.326 23.0152H632.432C632.472 20.5025 633.004 18.0219 633.998 15.7139H637.994ZM631.462 23.0152H627.977C628.059 20.4236 628.836 17.9018 630.228 15.7139H632.941C632.003 18.0358 631.501 20.5111 631.462 23.0152ZM632.432 23.9852H637.326C637.338 26.4337 637.561 28.8765 637.994 31.2865H633.998C633.004 28.9784 632.472 26.4979 632.432 23.9852ZM638.191 32.2605C638.35 32.9768 638.526 33.6483 638.719 34.267C639.172 35.7131 639.725 36.8852 640.355 37.7033C638.456 37.1077 636.763 35.7416 635.429 33.845C635.072 33.3365 634.749 32.8054 634.46 32.2551L638.191 32.2605ZM639.643 33.9794C639.476 33.4462 639.322 32.871 639.183 32.2605H645.815C645.68 32.871 645.522 33.4462 645.355 33.9794C644.573 36.4864 643.558 38.037 642.506 38.037C641.455 38.037 640.429 36.481 639.643 33.9739V33.9794ZM646.279 34.267C646.472 33.6483 646.65 32.9768 646.807 32.2605H650.534C650.246 32.8089 649.924 33.3382 649.569 33.845C648.235 35.7443 646.537 37.1077 644.643 37.7033C645.273 36.8798 645.827 35.7077 646.279 34.2615V34.267ZM647.004 31.2919C647.436 28.8819 647.661 26.4391 647.674 23.9906H652.567C652.527 26.5032 651.995 28.9836 651.002 31.2919H647.004ZM653.536 23.9906H657.022C656.94 26.5822 656.162 29.104 654.77 31.2919H652.057C652.996 28.9683 653.497 26.4911 653.536 23.9852V23.9906ZM653.536 23.0206C653.495 20.5162 652.992 18.0409 652.052 15.7193H654.765C656.157 17.9071 656.934 20.429 657.017 23.0206H653.536ZM652.775 13.2245C653.25 13.7006 653.692 14.2087 654.097 14.7453H651.616C651.255 13.9994 650.835 13.2835 650.36 12.6045C649.694 11.6442 648.897 10.782 647.991 10.0432C649.781 10.776 651.407 11.8574 652.775 13.2245ZM632.223 13.2245C633.591 11.8569 635.217 10.7755 637.007 10.0432C636.101 10.782 635.304 11.6442 634.638 12.6045C634.163 13.2835 633.743 13.9994 633.382 14.7453H630.901C631.306 14.2087 631.748 13.7006 632.223 13.2245ZM632.223 33.7759C631.748 33.2998 631.306 32.7917 630.901 32.2551H633.382C633.743 33.001 634.163 33.7168 634.638 34.3958C635.304 35.3558 636.101 36.2175 637.007 36.9558C635.217 36.224 633.591 35.143 632.223 33.7759ZM652.775 33.7759C651.407 35.143 649.781 36.224 647.991 36.9558C648.897 36.2175 649.694 35.3558 650.36 34.3958C650.835 33.7168 651.255 33.001 651.616 32.2551H654.097C653.692 32.7917 653.25 33.2998 652.775 33.7759Z" fill="white"/>
</g>
<path d="M708 47L2 47" stroke="white"/>
<path d="M46 1L46 47" stroke="white"/>
<path d="M0.5 1L46 46.5" stroke="white"/>
<path d="M46 1L0.499999 46.5" stroke="white"/>
<defs>
<clipPath id="clip0_538_962">
<rect width="31" height="31" fill="white" transform="translate(627 8)"/>
</clipPath>
</defs>
</svg>

<svg width="708" height="320" fill="none" xmlns="http://www.w3.org/2000/svg"><path stroke="#fff" d="M.5.5h707v319H.5z"/><mask id="a" style="mask-type:alpha" maskUnits="userSpaceOnUse" x="1" y="197" width="707" height="123"><path fill="#fff" stroke="#3D3D4C" d="M1.5 197.5h706v122H1.5z"/></mask><g mask="url(#a)" stroke="#fff"><path d="M215.01 274.5H707.5v45H215.01zM.75 290h707.251m0 15H.75m66.499-30H.482m51.24-14H1m17.08 58.5L43.96 275h23.29l-25.878 44.5M-11.422 290l25.361-44h23.29l-25.36 44"/><path d="M-.035 311l28.466-50h23.29l-25.36 44m129.909 14.5l25.878-44.5h23.291l-25.879 44.5m-112.83 0L92.61 275h23.29l-25.879 44.5m520.288.5l26.185-45.5m20.783 45l25.879-45m23.29 0l-25.878 45m-46.088 0l33.149-58.5h23.291l-25.879 44.5"/><path d="M682.904 274.5l25.879-44.5h23.29l-25.878 44.5M682.121 261h26.396m-595.722 58.5l25.878-44.5h23.291l-25.878 44.5"/></g><path d="M690.272 24.327a55.908 55.908 0 004.135-5.335 26.155 26.155 0 002.104-3.665c.492-1.096.78-2.04.784-2.872a2.526 2.526 0 00-.107-.805 1.728 1.728 0 00-.419-.694 1.693 1.693 0 00-.687-.42 2.46 2.46 0 00-.794-.123c-.819 0-1.751.296-2.83.796-2.403 1.123-5.542 3.353-8.873 6.33a55.466 55.466 0 00-5.257-4.194 25.518 25.518 0 00-3.611-2.136c-1.079-.5-2.013-.79-2.831-.796a2.4 2.4 0 00-.792.122 1.684 1.684 0 00-.681.423 1.72 1.72 0 00-.415.692c-.082.26-.122.532-.119.805 0 .831.292 1.776.784 2.872 1.107 2.439 3.304 5.622 6.238 9.004a55.988 55.988 0 00-4.134 5.334 26.178 26.178 0 00-2.104 3.665c-.492 1.096-.78 2.041-.784 2.872a2.56 2.56 0 00.119.806c.083.26.225.496.416.69.19.193.423.338.68.422.256.083.523.124.792.12.819 0 1.752-.296 2.831-.796 2.402-1.123 5.541-3.352 8.872-6.33a54.806 54.806 0 005.257 4.194 25.37 25.37 0 003.613 2.136c1.079.5 2.011.792 2.83.796a2.45 2.45 0 00.793-.12 1.714 1.714 0 001.095-1.112 2.53 2.53 0 00.119-.806c0-.83-.292-1.776-.784-2.872-1.102-2.438-3.299-5.622-6.24-9.003zm-.733-9.947c1.09-.77 2.24-1.449 3.439-2.029.986-.464 1.805-.687 2.315-.682.135-.003.27.016.399.056a.479.479 0 01.321.326c.04.13.059.268.055.404 0 .517-.216 1.35-.672 2.35-1.006 2.232-3.113 5.306-5.949 8.588a82.172 82.172 0 00-2.411-2.56 70.941 70.941 0 00-2.521-2.445 53.44 53.44 0 015.029-4.008h-.005zm-3.378 12.562a77.04 77.04 0 01-2.577 2.493 72.942 72.942 0 01-2.576-2.493 76.493 76.493 0 01-2.453-2.615 75.419 75.419 0 015.036-5.109 75.773 75.773 0 015.032 5.11 73.781 73.781 0 01-2.457 2.614h-.005zm-12.374-8.658a24.784 24.784 0 01-2.003-3.483c-.457-1-.676-1.833-.672-2.35a1.258 1.258 0 01.055-.404.481.481 0 01.321-.327c.129-.04.264-.058.398-.055.511 0 1.33.218 2.316.682 2.199 1.02 5.229 3.159 8.463 6.036-.83.772-1.679 1.59-2.524 2.447a74.374 74.374 0 00-2.41 2.56 54.073 54.073 0 01-3.944-5.106zm3.847 15.99a24.455 24.455 0 01-3.432 2.033c-.986.464-1.798.687-2.316.683a1.257 1.257 0 01-.398-.057.492.492 0 01-.202-.12.51.51 0 01-.119-.205 1.266 1.266 0 01-.055-.406c0-.517.215-1.347.672-2.35 1.006-2.23 3.112-5.304 5.948-8.586a82.342 82.342 0 002.41 2.56 80.576 80.576 0 002.522 2.447 53.866 53.866 0 01-5.03 4.002zm18.379 2.334a.522.522 0 01-.119.205.492.492 0 01-.202.12c-.129.04-.264.06-.399.057-.51 0-1.329-.22-2.315-.683-2.2-1.02-5.229-3.158-8.463-6.036.83-.773 1.679-1.59 2.523-2.446l-.436-.442.436.442a76.431 76.431 0 002.411-2.56 54.461 54.461 0 013.944 5.103 24.786 24.786 0 011.997 3.484c.457 1.003.677 1.834.672 2.35.006.137-.011.274-.049.406z" fill="#fff"/><path d="M689.546 20.802c.492.001.974-.146 1.385-.423.41-.276.73-.67.92-1.132a2.56 2.56 0 00-.535-2.756 2.458 2.458 0 00-2.715-.55 2.5 2.5 0 00-1.118.93 2.548 2.548 0 00.306 3.189c.466.473 1.097.74 1.757.742zm-12.027 7.165a2.46 2.46 0 00-1.378.428 2.515 2.515 0 00-.911 1.132 2.55 2.55 0 00.543 2.743 2.45 2.45 0 002.705.543c.453-.19.841-.513 1.113-.928a2.542 2.542 0 00-.314-3.18 2.47 2.47 0 00-1.758-.738zm12.027 0c-.49 0-.97.15-1.377.428a2.51 2.51 0 00-.912 1.132 2.55 2.55 0 00.543 2.743 2.45 2.45 0 002.705.543c.453-.19.841-.513 1.113-.928a2.542 2.542 0 00-.313-3.18 2.473 2.473 0 00-1.759-.738zm-12.025-12.204c-.492 0-.974.148-1.383.425-.41.278-.729.673-.917 1.134a2.558 2.558 0 00.54 2.754 2.457 2.457 0 002.713.548 2.501 2.501 0 001.118-.931 2.557 2.557 0 00-.31-3.19 2.472 2.472 0 00-1.761-.74z" fill="#fff"/><g clip-path="url(#clip0_538_962)"><path d="M653.46 12.54a15.503 15.503 0 104.539 10.96 15.464 15.464 0 00-4.539-10.96zm-25.483 11.445h3.485c.041 2.505.544 4.98 1.484 7.302h-2.713a14.465 14.465 0 01-2.256-7.302zm19.697-.97a42.666 42.666 0 00-.67-7.301h3.998a19.252 19.252 0 011.565 7.301h-4.893zm-9.38 0c.01-2.449.237-4.892.678-7.301h7.043c.442 2.409.669 4.852.678 7.301h-8.399zm8.411.97a41.296 41.296 0 01-.678 7.302h-7.049a41.298 41.298 0 01-.678-7.302h8.405zm.101-9.24a24.848 24.848 0 00-.528-2.006c-.452-1.446-1.007-2.62-1.636-3.436 1.892.596 3.593 1.961 4.927 3.852.355.507.677 1.037.965 1.585l-3.728.005zm-1.452-1.719c.167.534.32 1.109.46 1.72h-6.631a20.79 20.79 0 01.46-1.72c.786-2.507 1.797-4.057 2.857-4.057 1.059 0 2.073 1.55 2.855 4.057h-.001zm-6.635-.287c-.189.618-.369 1.29-.528 2.006h-3.731c.289-.55.612-1.081.969-1.59 1.338-1.89 3.032-3.256 4.926-3.852-.63.816-1.183 1.99-1.636 3.436zm-.725 2.975a42.463 42.463 0 00-.668 7.301h-4.894c.04-2.512.572-4.993 1.566-7.301h3.996zm-6.532 7.301h-3.485a14.452 14.452 0 012.251-7.301h2.713a20.34 20.34 0 00-1.479 7.301zm.97.97h4.894c.012 2.449.235 4.892.668 7.302h-3.996a19.233 19.233 0 01-1.566-7.302zm5.759 8.276a24.9 24.9 0 00.528 2.006c.453 1.446 1.006 2.618 1.636 3.436-1.899-.595-3.592-1.961-4.926-3.858-.357-.508-.68-1.04-.969-1.59l3.731.005zm1.452 1.718a22.431 22.431 0 01-.46-1.718h6.632a20.73 20.73 0 01-.46 1.718c-.782 2.507-1.797 4.058-2.849 4.058-1.051 0-2.077-1.556-2.863-4.063v.005zm6.636.288c.193-.619.371-1.29.528-2.007h3.727c-.288.549-.61 1.078-.965 1.585-1.334 1.9-3.032 3.263-4.926 3.858.63-.823 1.184-1.995 1.636-3.442v.006zm.725-2.975c.432-2.41.657-4.853.67-7.301h4.893a19.252 19.252 0 01-1.565 7.3h-3.998zm6.532-7.301h3.486a14.453 14.453 0 01-2.252 7.3h-2.713a20.34 20.34 0 001.479-7.306v.006zm0-.97a20.342 20.342 0 00-1.484-7.302h2.713a14.463 14.463 0 012.252 7.302h-3.481zm-.761-9.796c.475.476.917.984 1.322 1.52h-2.481a15.56 15.56 0 00-1.256-2.14 12.485 12.485 0 00-2.369-2.562 14.585 14.585 0 014.784 3.182zm-20.552 0a14.569 14.569 0 014.784-3.182 12.485 12.485 0 00-2.369 2.562 15.56 15.56 0 00-1.256 2.14h-2.481a14.69 14.69 0 011.322-1.52zm0 20.55a14.646 14.646 0 01-1.322-1.52h2.481a15.56 15.56 0 001.256 2.14c.666.96 1.463 1.822 2.369 2.56a14.565 14.565 0 01-4.784-3.18zm20.552 0a14.565 14.565 0 01-4.784 3.18 12.44 12.44 0 002.369-2.56 15.56 15.56 0 001.256-2.14h2.481a14.646 14.646 0 01-1.322 1.52z" fill="#fff"/></g><path d="M708 47H2M46 1v46M.5 1L46 46.5M46 1L.5 46.5" stroke="#fff"/><defs><clipPath id="clip0_538_962"><path fill="#fff" transform="translate(627 8)" d="M0 0h31v31H0z"/></clipPath></defs></svg>
